brands/dominos_24px.svg

<?xml version="1.0" encoding="UTF-8" standalone="no"?>
<!-- Created with Inkscape (http://www.inkscape.org/) -->

<svg
   width="24mm"
   height="24.000002mm"
   viewBox="0 0 24 24.000002"
   version="1.1"
   id="svg902"
   xml:space="preserve"
   xmlns:inkscape="http://www.inkscape.org/namespaces/inkscape"
   xmlns:sodipodi="http://sodipodi.sourceforge.net/DTD/sodipodi-0.dtd"
   xmlns="http://www.w3.org/2000/svg"
   xmlns:svg="http://www.w3.org/2000/svg"><sodipodi:namedview
     id="namedview904"
     pagecolor="#ffffff"
     bordercolor="#000000"
     borderopacity="0.25"
     inkscape:showpageshadow="2"
     inkscape:pageopacity="0.0"
     inkscape:pagecheckerboard="0"
     inkscape:deskcolor="#d1d1d1"
     inkscape:document-units="mm"
     showgrid="false" /><defs
     id="defs899"><clipPath
       id="_clipPath_N5puLvD5S2R76i34EzPaUd1TwgtR6ybm"><rect
         width="24"
         height="24"
         id="rect906"
         x="0"
         y="0" /></clipPath></defs><g
     inkscape:label="Layer 1"
     inkscape:groupmode="layer"
     id="layer1"><g
       style="isolation:isolate"
       id="g986"
       transform="matrix(1.0039216,0,0,1.0039216,0.16343914,-0.1333255)"><g
         clip-path="url(#_clipPath_N5puLvD5S2R76i34EzPaUd1TwgtR6ybm)"
         id="g954"><clipPath
           id="_clipPath_j0NMv80sDMZnXX1iZLsfC3mOEmnIlHCY"><rect
             x="0"
             y="0"
             width="24"
             height="24"
             fill="#ffffff"
             id="rect911" /></clipPath><g
           clip-path="url(#_clipPath_j0NMv80sDMZnXX1iZLsfC3mOEmnIlHCY)"
           id="g936"><g
             id="g934"><clipPath
               id="_clipPath_OlYLuclgkmNGn8HaKfIt6ROmk6MMeHKe"><rect
                 x="0"
                 y="0"
                 width="24"
                 height="24"
                 fill="#ffffff"
                 id="rect914" /></clipPath><g
               clip-path="url(#_clipPath_OlYLuclgkmNGn8HaKfIt6ROmk6MMeHKe)"
               id="g921"><g
                 id="g919"><g
                   id="g917" /></g></g><clipPath
               id="_clipPath_y0cIBjmWyM6Gds2RkpqD3iWgnxahvr6V"><rect
                 x="0"
                 y="0"
                 width="24"
                 height="24"
                 fill="#ffffff"
                 id="rect923" /></clipPath><g
               clip-path="url(#_clipPath_y0cIBjmWyM6Gds2RkpqD3iWgnxahvr6V)"
               id="g932"><g
                 id="g930"><g
                   id="g928"><g
                     id="g926" /></g></g></g></g></g><path
           d="m 18.593,16.825 c 1.777,-1.819 2.97,-4.201 2.97,-6.924 0,-5.278 -4.285,-9.563 -9.563,-9.563 -5.278,0 -9.562,4.285 -9.562,9.563 0,2.756 1.088,5.053 3.036,6.987 H 5.473 l 6.138,6.774 6.994,-6.837 z"
           fill="#006491"
           id="path938" /><g
           id="g952"><path
             d="m 5.7,11.271 8.291,-8.293 c 0.199,-0.199 0.522,-0.199 0.721,0 l 3.65,3.65 c 0.199,0.199 0.199,0.522 0,0.721 l -8.291,8.293 c -0.199,0.198 -0.522,0.198 -0.721,0 L 5.7,11.99 c -0.2,-0.197 -0.2,-0.522 0,-0.719 z"
             fill="#de2939"
             id="path940" /><path
             d="m 14.212,11.495 -4.075,4.076 Q 9.916,15.818 9.743,15.841 9.57,15.864 9.328,15.716 L 5.592,11.98 Q 5.488,11.787 5.488,11.669 5.489,11.552 5.654,11.296 L 9.841,7.124 Z"
             fill="#007bad"
             id="path942" /><rect
             x="11.97"
             y="6.0840001"
             width="0.382"
             height="6.1810002"
             transform="matrix(0.707,-0.707,0.707,0.707,-2.925,11.287)"
             fill="#ffffff"
             id="rect944" /><path
             d="m 10.589,12.374 c -0.399,-0.398 -0.399,-1.044 0,-1.442 0.398,-0.399 1.044,-0.399 1.443,0 0.397,0.398 0.397,1.044 0,1.442 -0.399,0.397 -1.045,0.397 -1.443,0 z"
             fill="#ffffff"
             id="path946" /><path
             d="m 13.653,7.687 c -0.398,-0.397 -0.398,-1.044 0,-1.443 0.399,-0.397 1.044,-0.397 1.443,0 0.397,0.399 0.397,1.046 0,1.443 -0.399,0.398 -1.044,0.398 -1.443,0 z"
             fill="#ffffff"
             id="path948" /><path
             d="m 7.412,12.352 c -0.399,-0.399 -0.399,-1.044 0,-1.443 0.398,-0.398 1.044,-0.398 1.442,0 0.397,0.399 0.397,1.044 0,1.443 -0.398,0.397 -1.044,0.397 -1.442,0 z"
             fill="#ffffff"
             id="path950" /></g></g></g></g></svg>

<?xml version="1.0" encoding="UTF-8" standalone="no"?><!-- Generator: Gravit.io --><svg xmlns="http://www.w3.org/2000/svg" xmlns:xlink="http://www.w3.org/1999/xlink" style="isolation:isolate" viewBox="0 0 24 24" width="24pt" height="24pt"><defs><clipPath id="_clipPath_N5puLvD5S2R76i34EzPaUd1TwgtR6ybm"><rect width="24" height="24"/></clipPath></defs><g clip-path="url(#_clipPath_N5puLvD5S2R76i34EzPaUd1TwgtR6ybm)"><clipPath id="_clipPath_j0NMv80sDMZnXX1iZLsfC3mOEmnIlHCY"><rect x="0" y="0" width="24" height="24" transform="matrix(1,0,0,1,0,0)" fill="rgb(255,255,255)"/></clipPath><g clip-path="url(#_clipPath_j0NMv80sDMZnXX1iZLsfC3mOEmnIlHCY)"><g><clipPath id="_clipPath_OlYLuclgkmNGn8HaKfIt6ROmk6MMeHKe"><rect x="0" y="0" width="24" height="24" transform="matrix(1,0,0,1,0,0)" fill="rgb(255,255,255)"/></clipPath><g clip-path="url(#_clipPath_OlYLuclgkmNGn8HaKfIt6ROmk6MMeHKe)"><g><g/></g></g><clipPath id="_clipPath_y0cIBjmWyM6Gds2RkpqD3iWgnxahvr6V"><rect x="0" y="0" width="24" height="24" transform="matrix(1,0,0,1,0,0)" fill="rgb(255,255,255)"/></clipPath><g clip-path="url(#_clipPath_y0cIBjmWyM6Gds2RkpqD3iWgnxahvr6V)"><g><g><g/></g></g></g></g></g><path d=" M 18.593 16.825 C 20.37 15.006 21.563 12.624 21.563 9.901 C 21.563 4.623 17.278 0.338 12 0.338 C 6.722 0.338 2.438 4.623 2.438 9.901 C 2.438 12.657 3.526 14.954 5.474 16.888 L 5.473 16.888 L 11.611 23.662 L 18.605 16.825 L 18.593 16.825 Z " fill="rgb(0,100,145)"/><g><path d=" M 5.7 11.271 L 13.991 2.978 C 14.19 2.779 14.513 2.779 14.712 2.978 L 18.362 6.628 C 18.561 6.827 18.561 7.15 18.362 7.349 L 10.071 15.642 C 9.872 15.84 9.549 15.84 9.35 15.642 L 5.7 11.99 C 5.5 11.793 5.5 11.468 5.7 11.271 Z " fill="rgb(222,41,57)"/><path d=" M 14.212 11.495 L 10.137 15.571 Q 9.916 15.818 9.743 15.841 Q 9.57 15.864 9.328 15.716 L 5.592 11.98 Q 5.488 11.787 5.488 11.669 Q 5.489 11.552 5.654 11.296 L 9.841 7.124 L 14.212 11.495 Z " fill="rgb(0,123,173)"/><rect x="11.97" y="6.084" width="0.382" height="6.181" transform="matrix(0.707,-0.707,0.707,0.707,-2.925,11.287)" fill="rgb(255,255,255)"/><path d=" M 10.589 12.374 C 10.19 11.976 10.19 11.33 10.589 10.932 C 10.987 10.533 11.633 10.533 12.032 10.932 C 12.429 11.33 12.429 11.976 12.032 12.374 C 11.633 12.771 10.987 12.771 10.589 12.374 Z " fill="rgb(255,255,255)"/><path d=" M 13.653 7.687 C 13.255 7.29 13.255 6.643 13.653 6.244 C 14.052 5.847 14.697 5.847 15.096 6.244 C 15.493 6.643 15.493 7.29 15.096 7.687 C 14.697 8.085 14.052 8.085 13.653 7.687 Z " fill="rgb(255,255,255)"/><path d=" M 7.412 12.352 C 7.013 11.953 7.013 11.308 7.412 10.909 C 7.81 10.511 8.456 10.511 8.854 10.909 C 9.251 11.308 9.251 11.953 8.854 12.352 C 8.456 12.749 7.81 12.749 7.412 12.352 Z " fill="rgb(255,255,255)"/></g></g></svg>
